X:445
T: John Collins' Fancy
S: "Johnny O'Leary of Sliabh Luachra" (#262)
Z: B.Black
L: 1/8
M: 2/4
Q: 270
R: polka
K: D
Ad cB|BA F2|AG EF/E/|BA FA|
Ad cB|c/B/A FG/F/|AG/A/ Bc|d2 d2 :|
A2 AB|de f2|ed Be|ed/B/ A2|
A2 AB|de fa/f/|ed BA|d2 d2 :|
